svg/fluentui-system-icons/ic_fluent_filmstrip_split_32_filled.svg

<svg width="32" height="32" viewBox="0 0 32 32" fill="none" xmlns="http://www.w3.org/2000/svg">
<path d="M17 3C17 2.44772 16.5523 2 16 2C15.4477 2 15 2.44772 15 3L15 29C15 29.5523 15.4477 30 16 30C16.5523 30 17 29.5523 17 29L17 3ZM6.5 4H13.5V28H6.5C4.01472 28 2 25.9853 2 23.5V8.5C2 6.01472 4.01472 4 6.5 4ZM6 8C5.44772 8 5 8.44772 5 9V11C5 11.5523 5.44772 12 6 12C6.55228 12 7 11.5523 7 11V9C7 8.44772 6.55228 8 6 8ZM5 15V17C5 17.5523 5.44772 18 6 18C6.55228 18 7 17.5523 7 17V15C7 14.4477 6.55228 14 6 14C5.44772 14 5 14.4477 5 15ZM6 20C5.44772 20 5 20.4477 5 21V23C5 23.5523 5.44772 24 6 24C6.55228 24 7 23.5523 7 23V21C7 20.4477 6.55228 20 6 20ZM25.5 28H18.5V4H25.5C27.9853 4 30 6.01472 30 8.5V23.5C30 25.9853 27.9853 28 25.5 28ZM25 9V11C25 11.5523 25.4477 12 26 12C26.5523 12 27 11.5523 27 11V9C27 8.44772 26.5523 8 26 8C25.4477 8 25 8.44772 25 9ZM26 14C25.4477 14 25 14.4477 25 15V17C25 17.5523 25.4477 18 26 18C26.5523 18 27 17.5523 27 17V15C27 14.4477 26.5523 14 26 14ZM25 21V23C25 23.5523 25.4477 24 26 24C26.5523 24 27 23.5523 27 23V21C27 20.4477 26.5523 20 26 20C25.4477 20 25 20.4477 25 21Z" fill="#212121"/>
</svg>

<svg xmlns="http://www.w3.org/2000/svg" width="32" height="32"><path d="M17 3a1 1 0 1 0-2 0v26a1 1 0 1 0 2 0V3ZM6.5 4h7v24h-7A4.5 4.5 0 0 1 2 23.5v-15A4.5 4.5 0 0 1 6.5 4ZM6 8a1 1 0 0 0-1 1v2a1 1 0 1 0 2 0V9a1 1 0 0 0-1-1Zm-1 7v2a1 1 0 1 0 2 0v-2a1 1 0 1 0-2 0Zm1 5a1 1 0 0 0-1 1v2a1 1 0 1 0 2 0v-2a1 1 0 0 0-1-1Zm19.5 8h-7V4h7A4.5 4.5 0 0 1 30 8.5v15a4.5 4.5 0 0 1-4.5 4.5ZM25 9v2a1 1 0 1 0 2 0V9a1 1 0 1 0-2 0Zm1 5a1 1 0 0 0-1 1v2a1 1 0 1 0 2 0v-2a1 1 0 0 0-1-1Zm-1 7v2a1 1 0 1 0 2 0v-2a1 1 0 1 0-2 0Z"/></svg>
